icons/svg/tourist/mine_abandoned.svg

<?xml version="1.0" encoding="UTF-8" standalone="no"?>
<!-- Created with Inkscape (http://www.inkscape.org/) -->

<svg
   xmlns:dc="http://purl.org/dc/elements/1.1/"
   xmlns:cc="http://creativecommons.org/ns#"
   xmlns:rdf="http://www.w3.org/1999/02/22-rdf-syntax-ns#"
   xmlns:svg="http://www.w3.org/2000/svg"
   xmlns="http://www.w3.org/2000/svg"
   xmlns:sodipodi="http://sodipodi.sourceforge.net/DTD/sodipodi-0.dtd"
   xmlns:inkscape="http://www.inkscape.org/namespaces/inkscape"
   version="1.0"
   width="580"
   height="580"
   id="svg2"
   sodipodi:version="0.32"
   inkscape:version="0.91 r13725"
   sodipodi:docname="mine_abandoned.svg"
   inkscape:output_extension="org.inkscape.output.svg.inkscape">
  <metadata
     id="metadata10">
    <rdf:RDF>
      <cc:Work
         rdf:about="">
        <dc:format>image/svg+xml</dc:format>
        <dc:type
           rdf:resource="http://purl.org/dc/dcmitype/StillImage" />
        <cc:license
           rdf:resource="http://web.resource.org/cc/PublicDomain" />
        <dc:language>en</dc:language>
      </cc:Work>
    </rdf:RDF>
  </metadata>
  <sodipodi:namedview
     inkscape:window-height="1003"
     inkscape:window-width="1400"
     inkscape:pageshadow="2"
     inkscape:pageopacity="0.0"
     guidetolerance="10.0"
     gridtolerance="10.0"
     objecttolerance="10.0"
     borderopacity="1.0"
     bordercolor="#666666"
     pagecolor="#ffffff"
     id="base"
     showgrid="false"
     inkscape:zoom="0.35355339"
     inkscape:cx="-61.487887"
     inkscape:cy="-34.972495"
     inkscape:window-x="0"
     inkscape:window-y="20"
     inkscape:current-layer="svg2"
     showguides="true"
     inkscape:guide-bbox="true"
     inkscape:window-maximized="0" />
  <defs
     id="defs4">
    <inkscape:perspective
       sodipodi:type="inkscape:persp3d"
       inkscape:vp_x="0 : 290 : 1"
       inkscape:vp_y="0 : 1000 : 0"
       inkscape:vp_z="580 : 290 : 1"
       inkscape:persp3d-origin="290 : 193.33333 : 1"
       id="perspective12" />
    <style
       type="text/css"
       id="style6">
   
    .fil0 {fill:#EF7900}
   
  </style>
    <inkscape:perspective
       id="perspective6807"
       inkscape:persp3d-origin="29.116032 : 19.410688 : 1"
       inkscape:vp_z="58.232063 : 29.116032 : 1"
       inkscape:vp_y="0 : 1000 : 0"
       inkscape:vp_x="0 : 29.116032 : 1"
       sodipodi:type="inkscape:persp3d" />
    <inkscape:perspective
       id="perspective6954"
       inkscape:persp3d-origin="290 : 193.33333 : 1"
       inkscape:vp_z="580 : 290 : 1"
       inkscape:vp_y="0 : 1000 : 0"
       inkscape:vp_x="0 : 290 : 1"
       sodipodi:type="inkscape:persp3d" />
    <inkscape:perspective
       id="perspective2541"
       inkscape:persp3d-origin="240 : 160 : 1"
       inkscape:vp_z="480 : 240 : 1"
       inkscape:vp_y="0 : 1000 : 0"
       inkscape:vp_x="0 : 240 : 1"
       sodipodi:type="inkscape:persp3d" />
    <inkscape:perspective
       id="perspective2750"
       inkscape:persp3d-origin="215 : 143.33333 : 1"
       inkscape:vp_z="430 : 215 : 1"
       inkscape:vp_y="0 : 1000 : 0"
       inkscape:vp_x="0 : 215 : 1"
       sodipodi:type="inkscape:persp3d" />
  </defs>
  <g
     id="g1327">
    <path
       d="M 66.275,1.768 C 24.94,1.768 1.704,23.139 1.704,66.804 L 1.704,516.927 C 1.704,557.771 22.598,579.156 63.896,579.156 L 515.92,579.156 C 557.227,579.156 578.149,558.84 578.149,516.927 L 578.149,66.804 C 578.149,24.203 557.227,1.768 514.627,1.768 C 514.624,1.768 66.133,1.625 66.275,1.768 z"
       style="fill:#111111;stroke:#eeeeee;stroke-width:3.40799999"
       id="path1329" />
  </g>
  <path
     style="fill:#ffffff;fill-opacity:1;stroke:#ffffff;stroke-width:20;stroke-linecap:round;stroke-linejoin:round;stroke-miterlimit:4;stroke-dasharray:none;stroke-opacity:1"
     d="m 383.0006,519.07057 -51.59375,-45.21875 69.75,-68.90625 c -26.00031,-28.21406 -52.18068,-56.30284 -78.40625,-84.34375 5.98428,-5.5813 11.95942,-11.16203 17.9375,-16.75 25.56765,28.76064 51.2008,57.48026 76.96875,86.03125 5.37477,3.82844 35.90895,-25.48403 39.59375,-31 l 84.59375,-44.59375 c -4.65595,3.3278 -42.77338,96.00629 -48.78125,101.25 -9.2805,8.13542 -20.12557,17.80484 -31.4375,28.03125 l 17.90625,17.4375 -13.78125,11.65625 -17.375,-17.0625 c -24.41146,22.36887 -49.34585,46.13231 -65.375,63.46875 z M 247.8756,240.53932 c -4.23864,-4.54392 -8.48517,-9.07713 -12.71875,-13.625 l -123.25,-131.84375 23.78125,-21.6875 119.96875,134.84375 c 3.9575,4.42956 7.89057,8.87862 11.84375,13.3125 -6.54263,6.33242 -13.07618,12.67399 -19.625,19 z"
     id="path3604"
     inkscape:connector-curvature="0" />
  <path
     style="fill:#ffffff;fill-opacity:1;stroke:#ffffff;stroke-width:20;stroke-linecap:round;stroke-linejoin:round;stroke-miterlimit:4;stroke-dasharray:none;stroke-opacity:1"
     d="M 116.00938,442.33099 C 87.556317,413.46727 68.445284,376.66384 44.563625,343.9633 l 52.823261,-38.52823 57.166044,82.38903 c 6.86902,3.61196 11.3378,-5.27847 15.48932,-9.24597 C 227.62573,321.47833 284.53973,263.568 341.86368,206.1502 l 127.25143,-127.98816 22.54488,22.9731 -130.35955,124.821 c -58.48609,56.23357 -117.45692,112.048 -175.62998,168.54704 -4.04492,4.07614 -13.01784,8.37688 -9.53573,15.31264 l 81.29895,58.70596 -39.51522,52.08906 c -35.23852,-24.70772 -71.06471,-48.0612 -101.90908,-78.27985 z"
     id="path3621"
     sodipodi:nodetypes="cccccccccccccc"
     inkscape:connector-curvature="0" />
</svg>

<svg width="580" height="580" viewBox="0 0 580 580" fill="none" xmlns="http://www.w3.org/2000/svg">
<g clip-path="url(#clip0)">
<path d="M66.2751 1.76815C24.9401 1.76815 1.7041 23.1391 1.7041 66.8041V516.927C1.7041 557.771 22.5981 579.156 63.8961 579.156H515.92C557.227 579.156 578.149 558.84 578.149 516.927V66.8041C578.149 24.2031 557.227 1.76815 514.627 1.76815C514.624 1.76815 66.1331 1.62515 66.2751 1.76815Z" fill="#111111" stroke="#EEEEEE" stroke-width="3.408"/>
<path d="M383 519.071L331.407 473.852L401.157 404.946C375.156 376.732 348.976 348.643 322.75 320.602C328.735 315.021 334.71 309.44 340.688 303.852C366.256 332.613 391.889 361.332 417.657 389.883C423.032 393.712 453.566 364.399 457.25 358.883L541.844 314.29C537.188 317.617 499.071 410.296 493.063 415.54C483.782 423.675 472.937 433.344 461.625 443.571L479.532 461.008L465.75 472.665L448.375 455.602C423.964 477.971 399.03 501.734 383 519.071V519.071ZM247.875 240.54C243.637 235.996 239.39 231.462 235.157 226.915L111.907 95.0708L135.688 73.3833L255.657 208.227C259.614 212.657 263.547 217.106 267.5 221.54C260.958 227.872 254.424 234.214 247.875 240.54V240.54Z" fill="white" stroke="white" stroke-width="20" stroke-linecap="round" stroke-linejoin="round"/>
<path d="M116.009 442.331C87.5562 413.467 68.4451 376.664 44.5635 343.963L97.3867 305.435L154.553 387.824C161.422 391.436 165.891 382.546 170.042 378.578C227.626 321.478 284.54 263.568 341.864 206.15L469.115 78.1621L491.66 101.135L361.3 225.956C302.814 282.19 243.843 338.004 185.67 394.503C181.625 398.579 172.652 402.88 176.135 409.816L257.434 468.522L217.918 520.611C182.68 495.903 146.854 472.55 116.009 442.331V442.331Z" fill="white" stroke="white" stroke-width="20" stroke-linecap="round" stroke-linejoin="round"/>
</g>
<defs>
<clipPath id="clip0">
<path d="M0 0H580V580H0V0Z" fill="white"/>
</clipPath>
</defs>
</svg>
